app/images/participant-modal/curly-left-arrow.svg

<svg width="198" height="88" viewBox="0 0 198 88" fill="none" xmlns="http://www.w3.org/2000/svg">
<path d="M184.179 2.37842C184.179 1.27385 185.075 0.378418 186.179 0.378418C187.284 0.378418 188.179 1.27385 188.179 2.37842L184.179 2.37842ZM23.4142 84.4142C22.6332 85.1953 21.3668 85.1953 20.5858 84.4142L7.85786 71.6863C7.07681 70.9052 7.07681 69.6389 7.85786 68.8579C8.6389 68.0768 9.90523 68.0768 10.6863 68.8579L22 80.1716L33.3137 68.8579C34.0947 68.0768 35.3611 68.0768 36.1421 68.8579C36.9232 69.6389 36.9232 70.9052 36.1421 71.6863L23.4142 84.4142ZM188.179 2.37842C188.179 8.69863 185.219 13.5163 180.317 17.1578C175.505 20.7323 168.781 23.2174 160.999 25.1094C145.459 28.8874 124.7 30.5062 104.337 33.0488C83.8052 35.6125 63.5945 39.1174 48.5401 46.5674C41.042 50.278 34.9231 54.9209 30.6782 60.8222C26.4511 66.6986 24 73.9354 24 83L20 83C20 73.1592 22.6795 65.0919 27.431 58.4864C32.1646 51.9057 38.8722 46.8888 46.7659 42.9824C62.4951 35.1985 83.3292 31.6409 103.842 29.0796C124.524 26.4972 144.81 24.9285 160.054 21.2226C167.663 19.3726 173.766 17.0416 177.932 13.9467C182.008 10.9187 184.179 7.2136 184.179 2.37842L188.179 2.37842Z" fill="#8347F7"/>
</svg>

<svg width="198" height="88" fill="none" xmlns="http://www.w3.org/2000/svg"><path d="M184.179 2.378a2 2 0 014 0h-4zM23.414 84.414a2 2 0 01-2.828 0L7.858 71.686a2 2 0 112.828-2.828L22 80.172l11.314-11.314a2 2 0 112.828 2.828L23.414 84.414zM188.18 2.378c0 6.32-2.96 11.138-7.862 14.78-4.812 3.574-11.536 6.06-19.318 7.951-15.54 3.778-36.299 5.397-56.662 7.94-20.532 2.563-40.743 6.068-55.797 13.518-7.498 3.711-13.617 8.354-17.862 14.255C26.451 66.7 24 73.935 24 83h-4c0-9.84 2.68-17.908 7.431-24.514 4.734-6.58 11.441-11.597 19.335-15.504 15.73-7.783 36.563-11.341 57.076-13.902 20.682-2.583 40.968-4.151 56.212-7.857 7.609-1.85 13.712-4.181 17.878-7.276 4.076-3.028 6.247-6.733 6.247-11.569h4z" fill="#8347F7"/></svg>
